X: 11
T: Gravel Walks, The
Z: Blunty026
S: https://thesession.org/tunes/42#setting44250
R: reel
M: 4/4
L: 1/8
K: Ador
|:"Am"A2eA BAeA|A2ed "G"BAGB|"Am"A2eA Bdef|"G"gedc BAGB:|
"A"A2aA gAfA|eAdc "G"BAGB|"A"A2aA gAfa|"G"gedc BAGB|
"A"A2aA gAfA|eAdc "G"BAGB|"F"ABcd "Em"egfa|"G"gedc BAGB||
|:"Am"cAAG A2AB|cAAG "G"BGBd|"Am"cAAG A2ef|"G"gfge dBGB:|
|:"C" c2gc acgc|c2gc "G"BAGB|"C" gc acga|"G"gedc BAGB|
"C"c2gc acgc|c2gc "G"BAGB|"F"ABcd "Em"egfa|1 "G"gedc BAGB:|2 "Am"gedc BAGB||

